X:1
T: Heather Bell
C:
R:Strathspey
Q: 128
K:Am
M:4/4
L:1/16
|:EA3 A3G E3G A4|EA3 A3B c3d e4|EA3 A3G E3G A4|Ad3 d3c A4A4|
EA3 A3G E3G A4|EA3 A3B c3d e4|EA3 A3G E3G A4|Ad3 d3c A4A4|
e3d c3d ed3 d4|e3d c3d e3f g4|e3d c3d ed3 d4|ea3 a3g e4d4|
e3d c3d ed3 d4|e3d c3d e3f g4|ea3 a3g eg3 g4|ea3 a3g e4d4:|
